svg/aws-ec2-x2iedn.svg

<?xml version="1.0" encoding="UTF-8"?>
<svg xmlns="http://www.w3.org/2000/svg" xmlns:xlink="http://www.w3.org/1999/xlink" width="32" height="32" viewBox="0 0 32 32">
<path fill-rule="evenodd" fill="rgb(83.137255%, 35.686275%, 2.745098%)" fill-opacity="1" d="M 6 26 L 26 26 L 26 6 L 6 6 Z M 27.332031 8.667969 L 27.332031 11.332031 L 30.667969 11.332031 L 30.667969 12.667969 L 27.332031 12.667969 L 27.332031 15.332031 L 30.667969 15.332031 L 30.667969 16.667969 L 27.332031 16.667969 L 27.332031 19.332031 L 30.667969 19.332031 L 30.667969 20.667969 L 27.332031 20.667969 L 27.332031 23.332031 L 30.667969 23.332031 L 30.667969 24.667969 L 27.332031 24.667969 L 27.332031 26.667969 C 27.332031 27.035156 27.035156 27.332031 26.667969 27.332031 L 24.667969 27.332031 L 24.667969 30.667969 L 23.332031 30.667969 L 23.332031 27.332031 L 20.667969 27.332031 L 20.667969 30.667969 L 19.332031 30.667969 L 19.332031 27.332031 L 16.667969 27.332031 L 16.667969 30.667969 L 15.332031 30.667969 L 15.332031 27.332031 L 12.667969 27.332031 L 12.667969 30.667969 L 11.332031 30.667969 L 11.332031 27.332031 L 8.667969 27.332031 L 8.667969 30.667969 L 7.332031 30.667969 L 7.332031 27.332031 L 5.332031 27.332031 C 4.964844 27.332031 4.667969 27.035156 4.667969 26.667969 L 4.667969 24.667969 L 1.332031 24.667969 L 1.332031 23.332031 L 4.667969 23.332031 L 4.667969 20.667969 L 1.332031 20.667969 L 1.332031 19.332031 L 4.667969 19.332031 L 4.667969 16.667969 L 1.332031 16.667969 L 1.332031 15.332031 L 4.667969 15.332031 L 4.667969 12.667969 L 1.332031 12.667969 L 1.332031 11.332031 L 4.667969 11.332031 L 4.667969 8.667969 L 1.332031 8.667969 L 1.332031 7.332031 L 4.667969 7.332031 L 4.667969 5.332031 C 4.667969 4.964844 4.964844 4.667969 5.332031 4.667969 L 7.332031 4.667969 L 7.332031 1.332031 L 8.667969 1.332031 L 8.667969 4.667969 L 11.332031 4.667969 L 11.332031 1.332031 L 12.667969 1.332031 L 12.667969 4.667969 L 15.332031 4.667969 L 15.332031 1.332031 L 16.667969 1.332031 L 16.667969 4.667969 L 19.332031 4.667969 L 19.332031 1.332031 L 20.667969 1.332031 L 20.667969 4.667969 L 23.332031 4.667969 L 23.332031 1.332031 L 24.667969 1.332031 L 24.667969 4.667969 L 26.667969 4.667969 C 27.035156 4.667969 27.332031 4.964844 27.332031 5.332031 L 27.332031 7.332031 L 30.667969 7.332031 L 30.667969 8.667969 Z M 22.359375 15.496094 C 22.636719 15.320312 22.90625 15.234375 23.171875 15.234375 C 23.347656 15.234375 23.472656 15.277344 23.554688 15.367188 C 23.632812 15.457031 23.671875 15.601562 23.675781 15.796875 L 23.675781 17.820312 L 24.382812 17.820312 L 24.382812 15.574219 C 24.382812 15.28125 24.304688 15.058594 24.152344 14.90625 C 24.003906 14.75 23.78125 14.675781 23.488281 14.675781 C 23.082031 14.675781 22.691406 14.816406 22.3125 15.101562 L 22.238281 14.765625 L 21.652344 14.765625 L 21.652344 17.820312 L 22.359375 17.820312 Z M 18.921875 16.269531 C 18.921875 16.976562 19.179688 17.328125 19.691406 17.328125 C 19.925781 17.328125 20.15625 17.25 20.378906 17.097656 L 20.378906 15.449219 C 20.183594 15.304688 19.945312 15.230469 19.703125 15.234375 C 19.433594 15.234375 19.238281 15.316406 19.113281 15.488281 C 18.984375 15.65625 18.921875 15.917969 18.921875 16.269531 M 18.546875 17.457031 C 18.316406 17.167969 18.203125 16.785156 18.203125 16.300781 C 18.203125 15.980469 18.253906 15.699219 18.359375 15.453125 C 18.453125 15.222656 18.609375 15.027344 18.808594 14.882812 C 19.003906 14.742188 19.234375 14.675781 19.503906 14.675781 C 19.824219 14.675781 20.117188 14.777344 20.378906 14.988281 L 20.378906 13.378906 L 21.089844 13.378906 L 21.089844 17.820312 L 20.480469 17.820312 L 20.410156 17.523438 C 20.136719 17.765625 19.824219 17.882812 19.46875 17.882812 C 19.085938 17.882812 18.777344 17.742188 18.546875 17.457031 M 16.023438 15.988281 L 17.339844 15.988281 L 17.339844 15.941406 C 17.339844 15.695312 17.289062 15.511719 17.1875 15.382812 C 17.085938 15.253906 16.941406 15.191406 16.746094 15.191406 C 16.554688 15.183594 16.371094 15.261719 16.246094 15.40625 C 16.117188 15.550781 16.042969 15.746094 16.023438 15.988281 M 15.695312 17.5 C 15.433594 17.230469 15.304688 16.832031 15.304688 16.3125 C 15.304688 15.796875 15.429688 15.394531 15.683594 15.105469 C 15.9375 14.820312 16.292969 14.675781 16.75 14.675781 C 17.140625 14.675781 17.441406 14.78125 17.652344 14.996094 C 17.863281 15.210938 17.96875 15.511719 17.96875 15.90625 C 17.96875 16.113281 17.949219 16.296875 17.914062 16.460938 L 16.023438 16.460938 C 16.035156 16.765625 16.117188 16.988281 16.269531 17.132812 C 16.421875 17.273438 16.65625 17.34375 16.976562 17.34375 C 17.261719 17.34375 17.570312 17.289062 17.902344 17.175781 L 17.902344 17.675781 C 17.765625 17.746094 17.605469 17.804688 17.417969 17.847656 C 17.234375 17.886719 17.039062 17.910156 16.839844 17.910156 C 16.335938 17.910156 15.953125 17.773438 15.695312 17.5 M 14.519531 14.261719 C 14.632812 14.269531 14.746094 14.230469 14.832031 14.152344 C 14.910156 14.070312 14.949219 13.964844 14.945312 13.851562 C 14.949219 13.742188 14.90625 13.632812 14.832031 13.550781 C 14.746094 13.476562 14.632812 13.441406 14.519531 13.445312 C 14.40625 13.4375 14.292969 13.476562 14.207031 13.550781 C 14.128906 13.632812 14.089844 13.738281 14.09375 13.851562 C 14.09375 13.980469 14.128906 14.082031 14.207031 14.152344 C 14.28125 14.226562 14.386719 14.261719 14.519531 14.261719 M 14.164062 17.820312 L 14.871094 17.820312 L 14.871094 14.765625 L 14.164062 14.765625 Z M 13.683594 17.25 L 11.589844 17.25 C 12.070312 16.8125 12.445312 16.449219 12.71875 16.152344 C 12.992188 15.859375 13.191406 15.597656 13.3125 15.367188 C 13.4375 15.136719 13.5 14.910156 13.5 14.6875 C 13.5 14.453125 13.445312 14.253906 13.339844 14.085938 C 13.234375 13.917969 13.082031 13.78125 12.902344 13.699219 C 12.695312 13.605469 12.472656 13.558594 12.246094 13.566406 C 11.78125 13.566406 11.359375 13.71875 10.980469 14.03125 L 10.980469 14.621094 C 11.1875 14.476562 11.390625 14.367188 11.59375 14.289062 C 11.796875 14.210938 11.984375 14.171875 12.15625 14.171875 C 12.351562 14.171875 12.503906 14.222656 12.609375 14.324219 C 12.71875 14.425781 12.773438 14.570312 12.773438 14.753906 C 12.773438 14.910156 12.722656 15.078125 12.621094 15.261719 C 12.523438 15.445312 12.34375 15.6875 12.082031 15.988281 C 11.824219 16.289062 11.417969 16.71875 10.863281 17.277344 L 10.863281 17.820312 L 13.683594 17.820312 Z M 7.144531 17.820312 L 8.535156 15.664062 L 7.242188 13.660156 L 7.972656 13.660156 L 8.960938 15.136719 L 9.929688 13.660156 L 10.660156 13.660156 L 9.359375 15.652344 L 10.757812 17.820312 L 10.023438 17.820312 L 8.933594 16.175781 L 7.875 17.820312 Z M 7.144531 17.820312 "/>
</svg>

<svg role="img" viewBox="0 0 32 32" height="32" width="32" xmlns="http://www.w3.org/2000/svg"><path d="M6 26h20V6H6ZM27.332 8.668v2.664h3.336v1.336h-3.336v2.664h3.336v1.336h-3.336v2.664h3.336v1.336h-3.336v2.664h3.336v1.336h-3.336v2a.664.664 0 0 1-.664.664h-2v3.336h-1.336v-3.336h-2.664v3.336h-1.336v-3.336h-2.664v3.336h-1.336v-3.336h-2.664v3.336h-1.336v-3.336H8.668v3.336H7.332v-3.336h-2a.664.664 0 0 1-.664-.664v-2H1.332v-1.336h3.336v-2.664H1.332v-1.336h3.336v-2.664H1.332v-1.336h3.336v-2.664H1.332v-1.336h3.336V8.668H1.332V7.332h3.336v-2c0-.367.297-.664.664-.664h2V1.332h1.336v3.336h2.664V1.332h1.336v3.336h2.664V1.332h1.336v3.336h2.664V1.332h1.336v3.336h2.664V1.332h1.336v3.336h2c.367 0 .664.297.664.664v2h3.336v1.336Zm-4.973 6.828c.278-.176.547-.262.813-.262.176 0 .3.043.383.133.078.09.117.235.12.43v2.023h.708v-2.246c0-.293-.078-.515-.23-.668-.15-.156-.372-.23-.665-.23-.406 0-.797.14-1.175.426l-.075-.336h-.586v3.054h.707Zm-3.437.774c0 .707.258 1.058.77 1.058.234 0 .464-.078.687-.23v-1.649a1.106 1.106 0 0 0-.676-.215c-.27 0-.465.082-.59.254-.129.168-.191.43-.191.782m-.375 1.187c-.23-.289-.344-.672-.344-1.156 0-.32.05-.602.156-.848.094-.23.25-.426.45-.57.195-.14.425-.207.695-.207.32 0 .613.101.875.312v-1.61h.71v4.442h-.609l-.07-.297c-.273.243-.586.36-.941.36-.383 0-.692-.14-.922-.426m-2.524-1.469h1.317v-.047c0-.246-.05-.43-.152-.558-.102-.13-.247-.192-.442-.192a.625.625 0 0 0-.5.215c-.129.145-.203.34-.223.582m-.328 1.512c-.261-.27-.39-.668-.39-1.187 0-.516.125-.918.379-1.208.254-.285.609-.43 1.066-.43.39 0 .691.106.902.321.211.215.317.516.317.91 0 .207-.02.39-.055.555h-1.89c.011.305.093.527.246.672.152.14.386.21.707.21.285 0 .593-.054.925-.167v.5a2.07 2.07 0 0 1-.484.172 2.797 2.797 0 0 1-.578.062c-.504 0-.887-.137-1.145-.41m-1.175-3.238a.422.422 0 0 0 .312-.11.409.409 0 0 0 .113-.3.432.432 0 0 0-.113-.301.454.454 0 0 0-.312-.106.436.436 0 0 0-.313.106.409.409 0 0 0-.113.3c0 .13.035.231.113.301.074.075.18.11.313.11m-.356 3.558h.707v-3.054h-.707Zm-.48-.57H11.59c.48-.437.855-.8 1.129-1.098.273-.293.472-.554.594-.785.124-.23.187-.457.187-.68 0-.234-.055-.433-.16-.601a1.022 1.022 0 0 0-.438-.387 1.464 1.464 0 0 0-.656-.133 1.94 1.94 0 0 0-1.266.465v.59c.207-.144.41-.254.614-.332.203-.078.39-.117.562-.117.196 0 .348.05.453.152.11.102.164.246.164.43 0 .156-.05.324-.152.508-.098.183-.277.425-.539.726-.258.301-.664.73-1.219 1.29v.542h2.82Zm-6.54.57 1.391-2.156-1.293-2.004h.73l.989 1.477.969-1.477h.73l-1.3 1.992 1.398 2.168h-.735l-1.09-1.644-1.058 1.644Zm0 0" fill="rgb(83.137255%, 35.686275%, 2.745098%)" fill-rule="evenodd"/></svg>
